X:395
T:Salty Dog "B" Break
C:Arr. Joe Carr
N:Merlin's Magical Mandolin Method
R:bluegrass
L:1/8
Q:1/4=215
M:4/4
K:C
z2 ^F2 ^G2 _B2 | "B"B^c B^G ^FG Bc | ^d^f ^gf bf gb | ^f^g fd ^df gf | d^c Bc B4 | 
"E"E^G BG EG B^c | d^f d^c B^G ^FG | "B"Bd ^d2 ^f^g f2 | b8 | "E"B,^C E^F EC B,C | 
E^F ^GB ^cB e2 | "B"^F^G B^c ^d^f ^g2 | b8 | "Gb"_b^g ^fb gf ^dg | ^f^g d^c B^G cB | 
"B"B4 d^d ^f^g | [b2^d2] [b2d2] [b4d4] | 


